images/icon-grid--blue.svg

<svg id="Layer_1" data-name="Layer 1" xmlns="http://www.w3.org/2000/svg" viewBox="0 0 612 612"><defs><style>.cls-1{fill:#1b3f6a}</style></defs><title>Vector Smart Object3</title><path class="cls-1" d="M584.18 312.55H472.91c-27.82 0-27.82 0-27.82 27.82v111.27c0 27.82 0 27.82 27.82 27.82h111.27c27.82 0 27.82 0 27.82-27.82V340.36c0-27.81 0-27.81-27.82-27.81zM361.64 90H250.36c-27.82 0-27.82 0-27.82 27.82v111.27c0 27.82 0 27.82 27.82 27.82h111.28c27.82 0 27.82 0 27.82-27.82V117.82C389.45 90 389.45 90 361.64 90zm222.54 445.09H472.91c-27.82 0-27.82 0-27.82 27.82v111.27c0 27.82 0 27.82 27.82 27.82h111.27C612 702 612 702 612 674.18V562.91c0-27.82 0-27.82-27.82-27.82zM361.64 312.55H250.36c-27.82 0-27.82 0-27.82 27.82v111.27c0 27.82 0 27.82 27.82 27.82h111.28c27.82 0 27.82 0 27.82-27.82V340.36c-.01-27.81-.01-27.81-27.82-27.81zM139.09 90H27.82C0 90 0 90 0 117.82v111.27c0 27.81 0 27.81 27.82 27.81h111.27c27.82 0 27.82 0 27.82-27.82V117.82c0-27.82 0-27.82-27.82-27.82zm222.55 445.09H250.36c-27.82 0-27.82 0-27.82 27.82v111.27c0 27.82 0 27.82 27.82 27.82h111.28c27.82 0 27.82 0 27.82-27.82V562.91c-.01-27.82-.01-27.82-27.82-27.82zM139.09 312.55H27.82C0 312.55 0 312.55 0 340.36v111.28c0 27.82 0 27.82 27.82 27.82h111.27c27.82 0 27.82 0 27.82-27.82V340.36c0-27.81 0-27.81-27.82-27.81zm0 222.54H27.82C0 535.09 0 535.09 0 562.91v111.27C0 702 0 702 27.82 702h111.27c27.82 0 27.82 0 27.82-27.82V562.91c0-27.82 0-27.82-27.82-27.82zM584.18 90H472.91c-27.82 0-27.82 0-27.82 27.82v111.27c0 27.82 0 27.82 27.82 27.82h111.27c27.82 0 27.82 0 27.82-27.82V117.82C612 90 612 90 584.18 90z" transform="translate(0 -90)"/></svg>

<svg id="Layer_1" data-name="Layer 1" xmlns="http://www.w3.org/2000/svg" viewBox="0 0 612 612"><defs><style>.cls-1{fill:#1b3f6a;}</style></defs><title>Vector Smart Object3</title><path class="cls-1" d="M584.18,312.55H472.91c-27.82,0-27.82,0-27.82,27.82V451.64c0,27.82,0,27.82,27.82,27.82H584.18c27.82,0,27.82,0,27.82-27.82V340.36C612,312.55,612,312.55,584.18,312.55ZM361.64,90H250.36c-27.82,0-27.82,0-27.82,27.82V229.09c0,27.82,0,27.82,27.82,27.82H361.64c27.82,0,27.82,0,27.82-27.82V117.82C389.45,90,389.45,90,361.64,90ZM584.18,535.09H472.91c-27.82,0-27.82,0-27.82,27.82V674.18c0,27.82,0,27.82,27.82,27.82H584.18C612,702,612,702,612,674.18V562.91C612,535.09,612,535.09,584.18,535.09ZM361.64,312.55H250.36c-27.82,0-27.82,0-27.82,27.82V451.64c0,27.82,0,27.82,27.82,27.82H361.64c27.82,0,27.82,0,27.82-27.82V340.36C389.45,312.55,389.45,312.55,361.64,312.55ZM139.09,90H27.82C0,90,0,90,0,117.82V229.09C0,256.9,0,256.9,27.82,256.9H139.09c27.82,0,27.82,0,27.82-27.82V117.82C166.91,90,166.91,90,139.09,90ZM361.64,535.09H250.36c-27.82,0-27.82,0-27.82,27.82V674.18c0,27.82,0,27.82,27.82,27.82H361.64c27.82,0,27.82,0,27.82-27.82V562.91C389.45,535.09,389.45,535.09,361.64,535.09ZM139.09,312.55H27.82C0,312.55,0,312.55,0,340.36V451.64c0,27.82,0,27.82,27.82,27.82H139.09c27.82,0,27.82,0,27.82-27.82V340.36C166.91,312.55,166.91,312.55,139.09,312.55Zm0,222.54H27.82C0,535.09,0,535.09,0,562.91V674.18C0,702,0,702,27.82,702H139.09c27.82,0,27.82,0,27.82-27.82V562.91C166.91,535.09,166.91,535.09,139.09,535.09ZM584.18,90H472.91c-27.82,0-27.82,0-27.82,27.82V229.09c0,27.82,0,27.82,27.82,27.82H584.18c27.82,0,27.82,0,27.82-27.82V117.82C612,90,612,90,584.18,90Z" transform="translate(0 -90)"/></svg>
